X:2479
T:Cancioneiro de Casto Sampedro: N\'umero 318
T:Muiñeira de Poio
O:Galicia (Spain)
B:Cancioneiro de Casto Sampedro
Z:Transcrito por Jos\'e J. Presedo
Z:Covertido de Midi a abc por Antonio-Nil
N:http://www.arrakis.es/~jpresedo/
M: 4/4
L: 1/8
Q:1/4=95
K:F % 1 flats
z2 z/2G/2G F/2G/2A/2B/2 AF/2B/2-|B/2A/2c/2B/2 A/2GF<DEG/2G|F/2G/2A/2B/2 AF/2BA/2c/2B/2 A/2GF/2|D2- D/2G/2G F/2G/2A/2B/2 AF/2B/2-|
B/2A/2c/2B/2 A/2GF<DEG/2G|F/2G/2A/2B/2 AF/2BA/2c/2B/2 A/2GF/2|D3F E/2DC/2 DE/2F/2-|F/2E/2D/2C/2 =B,/2C/2D/2F/2 E/2F/2G<CF|
E/2DC/2 DE/2FE/2D/2C/2 =B,/2C/2D/2F/2|C/2E/2G<CF E/2DC/2 DE/2F/2-|F/2E/2D/2C/2 =B,/2C/2D/2F/2 E/2F/2G<CF|E/2DC/2 DE/2FE/2D/2C/2 =B,/2C/2D/2F/2|
C/2E/2G/2CG/2G F/2G/2A/2B/2 AF/2B/2-|B/2A/2c/2B/2 A/2GF<DEG/2G|F/2G/2A/2B/2 AF/2BA/2c/2B/2 A/2GF/2|D2- D/2G/2G F/2G/2A/2B/2 AF/2B/2-|
B/2A/2c/2B/2 A/2GF<DEG/2G|F/2G/2A/2B/2 AF/2BA/2c/2B/2 A/2GF/2|D3F E/2DC/2 DE/2F/2-|F/2E/2D/2C/2 =B,/2C/2D/2F/2 E/2F/2G<CF|
E/2DC/2 DE/2FE/2D/2C/2 =B,/2C/2D/2F/2|C/2E/2G<CF E/2DC/2 DE/2F/2-|F/2E/2D/2C/2 =B,/2C/2D/2F/2 E/2F/2G<CF|E/2DC/2 DE/2FE/2D/2C/2 =B,/2C/2D/2F/2|
C/2E/2G<C


